X:0875
T:Colin stole my Heart away.
M:2/4
L:1/8
Q:1/4=120
I: :: ||
Z:Jack Campin * www.campin.me.uk * 2009
K:D
A|defg|a2a2|gfgg|f2za|g2e2|f3d| e2c2|d3 :|
A|A3 A|B2B2|c2c2|d2zd|e2ze|f3f|^g2g2|a2z
a|a2f2|f2za|g2e2|e2zd|e2d2|c2d2|g2f2|e2ea|
  a2f2|f2za|g2e2|e2zg|fegf|e2d2|fedc|d3 |]

